svgs/thin/bed-bunk.svg

<svg xmlns="http://www.w3.org/2000/svg" viewBox="0 0 576 512"><!--! Font Awesome Pro 6.6.0 by @fontawesome - https://fontawesome.com License - https://fontawesome.com/license (Commercial License) Copyright 2024 Fonticons, Inc. --><path d="M16 8c0-4.4-3.6-8-8-8S0 3.6 0 8L0 200 0 439.7 0 504c0 4.4 3.6 8 8 8s8-3.6 8-8l0-56.3 200 0 344 0 0 56.3c0 4.4 3.6 8 8 8s8-3.6 8-8l0-64.3L576 280l0-80 0-64c0-57.4-46.6-104-104-104L232 32c-13.3 0-24 10.7-24 24l0 136L16 192 16 8zM208 296l0 135.7-192 0L16 208l200 0 344 0 0 64-328 0c-13.3 0-24 10.7-24 24zM560 136l0 56-336 0 0-136c0-4.4 3.6-8 8-8l240 0c48.6 0 88 39.4 88 88zM232 288l328 0 0 143.7-336 0L224 296c0-4.4 3.6-8 8-8zM112 48a48 48 0 1 1 0 96 48 48 0 1 1 0-96zm0 112a64 64 0 1 0 0-128 64 64 0 1 0 0 128zm0 128a48 48 0 1 1 0 96 48 48 0 1 1 0-96zm0 112a64 64 0 1 0 0-128 64 64 0 1 0 0 128z"/></svg>

<svg xmlns="http://www.w3.org/2000/svg" viewBox="0 0 576 512"><!--! Font Awesome Pro 6.4.2 by @fontawesome - https://fontawesome.com License - https://fontawesome.com/license (Commercial License) Copyright 2023 Fonticons, Inc. --><path d="M16 8c0-4.4-3.6-8-8-8S0 3.6 0 8V200 439.7 504c0 4.4 3.6 8 8 8s8-3.6 8-8V447.7H216 560V504c0 4.4 3.6 8 8 8s8-3.6 8-8V439.7 280 200 136c0-57.4-46.6-104-104-104H232c-13.3 0-24 10.7-24 24V192H16V8zM208 296V431.7H16V208H216 560v64H232c-13.3 0-24 10.7-24 24zM560 136v56H224V56c0-4.4 3.6-8 8-8H472c48.6 0 88 39.4 88 88zM232 288H560V431.7H224V296c0-4.4 3.6-8 8-8zM112 48a48 48 0 1 1 0 96 48 48 0 1 1 0-96zm0 112a64 64 0 1 0 0-128 64 64 0 1 0 0 128zm0 128a48 48 0 1 1 0 96 48 48 0 1 1 0-96zm0 112a64 64 0 1 0 0-128 64 64 0 1 0 0 128z"/></svg>
